X: 9130
T: Daft Rory
R: reel
M: 4/4
K: Amixolydian
e|cA^GA EAGA|cAeA fAeA|cA^GA cdef|gGGB {Bc}d2 d:|
e|cAeA fAed|cAec {c}d2 Bd|cAeA fAef|gGGB {Bc}d2 ed|
cAeA fAed|cAed ceaf|gbgb fafa|gGGB {Bc}d2 d||

